; create by plugin (Nova3d Nodejs-TS):1.0.0
;(****Build and Slicing Parameters****)
;(X Resolution            = 3840 )
;(Y Resolution            = 2400 )
;(Layer Thickness         = 0.1 mm )
;(Layer Time              = 3000 ms )
;(Render Outlines         = False
;(Outline Width Inset     = 2
;(Outline Width Outset    = 0
;(Bottom Layers Time      = 10 ms )
;(Number of Bottom Layers = 1 )
;(Blanking Layer Time     = 0 ms )
;(Build Direction         = Bottom_Up)
;(Lift Distance           = 5 mm )
;(Slide/Tilt Value        = 0)
;(Use Mainlift GCode Tab  = False)
;(Wait After Stop         = 4s )
;(Z Lift Feed Rate        = 120 mm/s )
;(Z Bottom Lift Feed Rate = 120 mm/s )
;(Z Lift Retract Rate     = 120 mm/s )
;(Flip X                  = True)
;(Flip Y                  = True)
;Number of Slices         = 42
;(****Machine Configuration ******)
;(Platform X Size         = 192mm )
;(Platform Y Size         = 120mm )
;(Platform Z Size         = 250mm )
;(Max X Feedrate          = 240mm/s )
;(Max Y Feedrate          = 240mm/s )
;(Max Z Feedrate          = 240mm/s )
;(Machine Type            = UV_LCD)

G28
G21 ;Set units to be mm
G91 ;Relative Positioning
M17 ;Enable motors
<Slice> Blank
M106 S0

;<Slice> 0
M106 S255
;<Delay> 10000
M106 S0
;<Slice> Blank
G1 Z6 F120
G1 Z-5.9 F120
;<Delay> 9950

;<Slice> 1
M106 S255
;<Delay> 3000
M106 S0
;<Slice> Blank
G1 Z6 F120
G1 Z-5.9 F120
;<Delay> 9950

;<Slice> 2
M106 S255
;<Delay> 3000
M106 S0
;<Slice> Blank
G1 Z6 F120
G1 Z-5.9 F120
;<Delay> 9950

;<Slice> 3
M106 S255
;<Delay> 3000
M106 S0
;<Slice> Blank
G1 Z6 F120
G1 Z-5.9 F120
;<Delay> 9950

;<Slice> 4
M106 S255
;<Delay> 3000
M106 S0
;<Slice> Blank
G1 Z6 F120
G1 Z-5.9 F120
;<Delay> 9950

;<Slice> 5
M106 S255
;<Delay> 3000
M106 S0
;<Slice> Blank
G1 Z6 F120
G1 Z-5.9 F120
;<Delay> 9950

;<Slice> 6
M106 S255
;<Delay> 3000
M106 S0
;<Slice> Blank
G1 Z6 F120
G1 Z-5.9 F120
;<Delay> 9950

;<Slice> 7
M106 S255
;<Delay> 3000
M106 S0
;<Slice> Blank
G1 Z6 F120
G1 Z-5.9 F120
;<Delay> 9950

;<Slice> 8
M106 S255
;<Delay> 3000
M106 S0
;<Slice> Blank
G1 Z6 F120
G1 Z-5.9 F120
;<Delay> 9950

;<Slice> 9
M106 S255
;<Delay> 3000
M106 S0
;<Slice> Blank
G1 Z6 F120
G1 Z-5.9 F120
;<Delay> 9950

;<Slice> 10
M106 S255
;<Delay> 3000
M106 S0
;<Slice> Blank
G1 Z6 F120
G1 Z-5.9 F120
;<Delay> 9950

;<Slice> 11
M106 S255
;<Delay> 3000
M106 S0
;<Slice> Blank
G1 Z6 F120
G1 Z-5.9 F120
;<Delay> 9950

;<Slice> 12
M106 S255
;<Delay> 3000
M106 S0
;<Slice> Blank
G1 Z6 F120
G1 Z-5.9 F120
;<Delay> 9950

;<Slice> 13
M106 S255
;<Delay> 3000
M106 S0
;<Slice> Blank
G1 Z6 F120
G1 Z-5.9 F120
;<Delay> 9950

;<Slice> 14
M106 S255
;<Delay> 3000
M106 S0
;<Slice> Blank
G1 Z6 F120
G1 Z-5.9 F120
;<Delay> 9950

;<Slice> 15
M106 S255
;<Delay> 3000
M106 S0
;<Slice> Blank
G1 Z6 F120
G1 Z-5.9 F120
;<Delay> 9950

;<Slice> 16
M106 S255
;<Delay> 3000
M106 S0
;<Slice> Blank
G1 Z6 F120
G1 Z-5.9 F120
;<Delay> 9950

;<Slice> 17
M106 S255
;<Delay> 3000
M106 S0
;<Slice> Blank
G1 Z6 F120
G1 Z-5.9 F120
;<Delay> 9950

;<Slice> 18
M106 S255
;<Delay> 3000
M106 S0
;<Slice> Blank
G1 Z6 F120
G1 Z-5.9 F120
;<Delay> 9950

;<Slice> 19
M106 S255
;<Delay> 3000
M106 S0
;<Slice> Blank
G1 Z6 F120
G1 Z-5.9 F120
;<Delay> 9950

;<Slice> 20
M106 S255
;<Delay> 3000
M106 S0
;<Slice> Blank
G1 Z6 F120
G1 Z-5.9 F120
;<Delay> 9950

;<Slice> 21
M106 S255
;<Delay> 3000
M106 S0
;<Slice> Blank
G1 Z6 F120
G1 Z-5.8999999 F120
;<Delay> 9949

;<Slice> 22
M106 S255
;<Delay> 3000
M106 S0
;<Slice> Blank
G1 Z6.0000001 F120
G1 Z-5.9 F120
;<Delay> 9950

;<Slice> 23
M106 S255
;<Delay> 3000
M106 S0
;<Slice> Blank
G1 Z6 F120
G1 Z-5.9 F120
;<Delay> 9950

;<Slice> 24
M106 S255
;<Delay> 3000
M106 S0
;<Slice> Blank
G1 Z6 F120
G1 Z-5.9 F120
;<Delay> 9950

;<Slice> 25
M106 S255
;<Delay> 3000
M106 S0
;<Slice> Blank
G1 Z6 F120
G1 Z-5.9 F120
;<Delay> 9950

;<Slice> 26
M106 S255
;<Delay> 3000
M106 S0
;<Slice> Blank
G1 Z6 F120
G1 Z-5.8999999 F120
;<Delay> 9949

;<Slice> 27
M106 S255
;<Delay> 3000
M106 S0
;<Slice> Blank
G1 Z6.0000001 F120
G1 Z-5.9 F120
;<Delay> 9950

;<Slice> 28
M106 S255
;<Delay> 3000
M106 S0
;<Slice> Blank
G1 Z6 F120
G1 Z-5.9 F120
;<Delay> 9950

;<Slice> 29
M106 S255
;<Delay> 3000
M106 S0
;<Slice> Blank
G1 Z6 F120
G1 Z-5.9 F120
;<Delay> 9950

;<Slice> 30
M106 S255
;<Delay> 3000
M106 S0
;<Slice> Blank
G1 Z6 F120
G1 Z-5.9 F120
;<Delay> 9950

;<Slice> 31
M106 S255
;<Delay> 3000
M106 S0
;<Slice> Blank
G1 Z6 F120
G1 Z-5.8999999 F120
;<Delay> 9949

;<Slice> 32
M106 S255
;<Delay> 3000
M106 S0
;<Slice> Blank
G1 Z6.0000001 F120
G1 Z-5.9 F120
;<Delay> 9950

;<Slice> 33
M106 S255
;<Delay> 3000
M106 S0
;<Slice> Blank
G1 Z6 F120
G1 Z-5.9 F120
;<Delay> 9950

;<Slice> 34
M106 S255
;<Delay> 3000
M106 S0
;<Slice> Blank
G1 Z6 F120
G1 Z-5.9 F120
;<Delay> 9950

;<Slice> 35
M106 S255
;<Delay> 3000
M106 S0
;<Slice> Blank
G1 Z6 F120
G1 Z-5.9 F120
;<Delay> 9950

;<Slice> 36
M106 S255
;<Delay> 3000
M106 S0
;<Slice> Blank
G1 Z6 F120
G1 Z-5.8999999 F120
;<Delay> 9949

;<Slice> 37
M106 S255
;<Delay> 3000
M106 S0
;<Slice> Blank
G1 Z6.0000001 F120
G1 Z-5.9 F120
;<Delay> 9950

;<Slice> 38
M106 S255
;<Delay> 3000
M106 S0
;<Slice> Blank
G1 Z6 F120
G1 Z-5.9 F120
;<Delay> 9950

;<Slice> 39
M106 S255
;<Delay> 3000
M106 S0
;<Slice> Blank
G1 Z6 F120
G1 Z-5.9 F120
;<Delay> 9950

;<Slice> 40
M106 S255
;<Delay> 3000
M106 S0
;<Slice> Blank
G1 Z6 F120
G1 Z-5.9 F120
;<Delay> 9950

;<Slice> 41
M106 S255
;<Delay> 3000
M106 S0
;<Slice> Blank
G1 Z6 F120
G1 Z-5.8999999 F120
;<Delay> 9949

M18 ;Disable Motors
M106 S0
G1 Z80
;<Completed>
