;fileName:point5mm_test.stl #6
;machineType:default
;estimatedPrintTime:401.8
;volume:0
;resin:normal
;weight:0
;price:0
;layerHeight:0.1
;resolutionX:3840
;resolutionY:2400
;machineX:192
;machineY:120
;machineZ:250
;projectType:LCD_mirror
;normalExposureTime:3
;bottomLayExposureTime:10
;bottomLayerExposureTime:10
;normalDropSpeed:120
;normalLayerLiftHeight:6
;zSlowUpDistance:0
;normalLayerLiftSpeed:120
;bottomLayCount:1
;bottomLayerCount:1
;mirror:1
;totalLayer:42
;bottomLayerLiftHeight:6
;bottomLayerLiftSpeed:120
;bottomLightOffTime:4
;lightOffTime:4
;START_GCODE_BEGIN
G21;
G90;
M106 S0;
G28 Z0;

;START_GCODE_END

;LAYER_START:0
;currPos:0.1
M6054 "1.png";show Image
G0 Z6.1 F120;
G0 Z0.1 F120;
G4 P4000;
M106 S255;light on
G4 P10000;
M106 S0; light off

;LAYER_END

;LAYER_START:1
;currPos:0.2
M6054 "2.png";show Image
G0 Z6.2 F120;
G0 Z0.2 F120;
G4 P4000;
M106 S255;light on
G4 P3000;
M106 S0; light off

;LAYER_END

;LAYER_START:2
;currPos:0.3
M6054 "3.png";show Image
G0 Z6.3 F120;
G0 Z0.3 F120;
G4 P4000;
M106 S255;light on
G4 P3000;
M106 S0; light off

;LAYER_END

;LAYER_START:3
;currPos:0.4
M6054 "4.png";show Image
G0 Z6.4 F120;
G0 Z0.4 F120;
G4 P4000;
M106 S255;light on
G4 P3000;
M106 S0; light off

;LAYER_END

;LAYER_START:4
;currPos:0.5
M6054 "5.png";show Image
G0 Z6.5 F120;
G0 Z0.5 F120;
G4 P4000;
M106 S255;light on
G4 P3000;
M106 S0; light off

;LAYER_END

;LAYER_START:5
;currPos:0.6
M6054 "6.png";show Image
G0 Z6.6 F120;
G0 Z0.6 F120;
G4 P4000;
M106 S255;light on
G4 P3000;
M106 S0; light off

;LAYER_END

;LAYER_START:6
;currPos:0.7
M6054 "7.png";show Image
G0 Z6.7 F120;
G0 Z0.7 F120;
G4 P4000;
M106 S255;light on
G4 P3000;
M106 S0; light off

;LAYER_END

;LAYER_START:7
;currPos:0.8
M6054 "8.png";show Image
G0 Z6.8 F120;
G0 Z0.8 F120;
G4 P4000;
M106 S255;light on
G4 P3000;
M106 S0; light off

;LAYER_END

;LAYER_START:8
;currPos:0.9
M6054 "9.png";show Image
G0 Z6.9 F120;
G0 Z0.9 F120;
G4 P4000;
M106 S255;light on
G4 P3000;
M106 S0; light off

;LAYER_END

;LAYER_START:9
;currPos:1
M6054 "10.png";show Image
G0 Z7 F120;
G0 Z1 F120;
G4 P4000;
M106 S255;light on
G4 P3000;
M106 S0; light off

;LAYER_END

;LAYER_START:10
;currPos:1.1
M6054 "11.png";show Image
G0 Z7.1 F120;
G0 Z1.1 F120;
G4 P4000;
M106 S255;light on
G4 P3000;
M106 S0; light off

;LAYER_END

;LAYER_START:11
;currPos:1.2
M6054 "12.png";show Image
G0 Z7.2 F120;
G0 Z1.2 F120;
G4 P4000;
M106 S255;light on
G4 P3000;
M106 S0; light off

;LAYER_END

;LAYER_START:12
;currPos:1.3
M6054 "13.png";show Image
G0 Z7.3 F120;
G0 Z1.3 F120;
G4 P4000;
M106 S255;light on
G4 P3000;
M106 S0; light off

;LAYER_END

;LAYER_START:13
;currPos:1.4
M6054 "14.png";show Image
G0 Z7.4 F120;
G0 Z1.4 F120;
G4 P4000;
M106 S255;light on
G4 P3000;
M106 S0; light off

;LAYER_END

;LAYER_START:14
;currPos:1.5
M6054 "15.png";show Image
G0 Z7.5 F120;
G0 Z1.5 F120;
G4 P4000;
M106 S255;light on
G4 P3000;
M106 S0; light off

;LAYER_END

;LAYER_START:15
;currPos:1.6
M6054 "16.png";show Image
G0 Z7.6 F120;
G0 Z1.6 F120;
G4 P4000;
M106 S255;light on
G4 P3000;
M106 S0; light off

;LAYER_END

;LAYER_START:16
;currPos:1.7
M6054 "17.png";show Image
G0 Z7.7 F120;
G0 Z1.7 F120;
G4 P4000;
M106 S255;light on
G4 P3000;
M106 S0; light off

;LAYER_END

;LAYER_START:17
;currPos:1.8
M6054 "18.png";show Image
G0 Z7.8 F120;
G0 Z1.8 F120;
G4 P4000;
M106 S255;light on
G4 P3000;
M106 S0; light off

;LAYER_END

;LAYER_START:18
;currPos:1.9
M6054 "19.png";show Image
G0 Z7.9 F120;
G0 Z1.9 F120;
G4 P4000;
M106 S255;light on
G4 P3000;
M106 S0; light off

;LAYER_END

;LAYER_START:19
;currPos:2
M6054 "20.png";show Image
G0 Z8 F120;
G0 Z2 F120;
G4 P4000;
M106 S255;light on
G4 P3000;
M106 S0; light off

;LAYER_END

;LAYER_START:20
;currPos:2.1
M6054 "21.png";show Image
G0 Z8.1 F120;
G0 Z2.1 F120;
G4 P4000;
M106 S255;light on
G4 P3000;
M106 S0; light off

;LAYER_END

;LAYER_START:21
;currPos:2.2
M6054 "22.png";show Image
G0 Z8.2 F120;
G0 Z2.2 F120;
G4 P4000;
M106 S255;light on
G4 P3000;
M106 S0; light off

;LAYER_END

;LAYER_START:22
;currPos:2.3
M6054 "23.png";show Image
G0 Z8.3 F120;
G0 Z2.3 F120;
G4 P4000;
M106 S255;light on
G4 P3000;
M106 S0; light off

;LAYER_END

;LAYER_START:23
;currPos:2.4
M6054 "24.png";show Image
G0 Z8.4 F120;
G0 Z2.4 F120;
G4 P4000;
M106 S255;light on
G4 P3000;
M106 S0; light off

;LAYER_END

;LAYER_START:24
;currPos:2.5
M6054 "25.png";show Image
G0 Z8.5 F120;
G0 Z2.5 F120;
G4 P4000;
M106 S255;light on
G4 P3000;
M106 S0; light off

;LAYER_END

;LAYER_START:25
;currPos:2.6
M6054 "26.png";show Image
G0 Z8.6 F120;
G0 Z2.6 F120;
G4 P4000;
M106 S255;light on
G4 P3000;
M106 S0; light off

;LAYER_END

;LAYER_START:26
;currPos:2.7
M6054 "27.png";show Image
G0 Z8.7 F120;
G0 Z2.7 F120;
G4 P4000;
M106 S255;light on
G4 P3000;
M106 S0; light off

;LAYER_END

;LAYER_START:27
;currPos:2.8
M6054 "28.png";show Image
G0 Z8.8 F120;
G0 Z2.8 F120;
G4 P4000;
M106 S255;light on
G4 P3000;
M106 S0; light off

;LAYER_END

;LAYER_START:28
;currPos:2.9
M6054 "29.png";show Image
G0 Z8.9 F120;
G0 Z2.9 F120;
G4 P4000;
M106 S255;light on
G4 P3000;
M106 S0; light off

;LAYER_END

;LAYER_START:29
;currPos:3
M6054 "30.png";show Image
G0 Z9 F120;
G0 Z3 F120;
G4 P4000;
M106 S255;light on
G4 P3000;
M106 S0; light off

;LAYER_END

;LAYER_START:30
;currPos:3.1
M6054 "31.png";show Image
G0 Z9.1 F120;
G0 Z3.1 F120;
G4 P4000;
M106 S255;light on
G4 P3000;
M106 S0; light off

;LAYER_END

;LAYER_START:31
;currPos:3.2
M6054 "32.png";show Image
G0 Z9.2 F120;
G0 Z3.2 F120;
G4 P4000;
M106 S255;light on
G4 P3000;
M106 S0; light off

;LAYER_END

;LAYER_START:32
;currPos:3.3
M6054 "33.png";show Image
G0 Z9.3 F120;
G0 Z3.3 F120;
G4 P4000;
M106 S255;light on
G4 P3000;
M106 S0; light off

;LAYER_END

;LAYER_START:33
;currPos:3.4
M6054 "34.png";show Image
G0 Z9.4 F120;
G0 Z3.4 F120;
G4 P4000;
M106 S255;light on
G4 P3000;
M106 S0; light off

;LAYER_END

;LAYER_START:34
;currPos:3.5
M6054 "35.png";show Image
G0 Z9.5 F120;
G0 Z3.5 F120;
G4 P4000;
M106 S255;light on
G4 P3000;
M106 S0; light off

;LAYER_END

;LAYER_START:35
;currPos:3.6
M6054 "36.png";show Image
G0 Z9.6 F120;
G0 Z3.6 F120;
G4 P4000;
M106 S255;light on
G4 P3000;
M106 S0; light off

;LAYER_END

;LAYER_START:36
;currPos:3.7
M6054 "37.png";show Image
G0 Z9.7 F120;
G0 Z3.7 F120;
G4 P4000;
M106 S255;light on
G4 P3000;
M106 S0; light off

;LAYER_END

;LAYER_START:37
;currPos:3.8
M6054 "38.png";show Image
G0 Z9.8 F120;
G0 Z3.8 F120;
G4 P4000;
M106 S255;light on
G4 P3000;
M106 S0; light off

;LAYER_END

;LAYER_START:38
;currPos:3.9
M6054 "39.png";show Image
G0 Z9.9 F120;
G0 Z3.9 F120;
G4 P4000;
M106 S255;light on
G4 P3000;
M106 S0; light off

;LAYER_END

;LAYER_START:39
;currPos:4
M6054 "40.png";show Image
G0 Z10 F120;
G0 Z4 F120;
G4 P4000;
M106 S255;light on
G4 P3000;
M106 S0; light off

;LAYER_END

;LAYER_START:40
;currPos:4.1
M6054 "41.png";show Image
G0 Z10.1 F120;
G0 Z4.1 F120;
G4 P4000;
M106 S255;light on
G4 P3000;
M106 S0; light off

;LAYER_END

;LAYER_START:41
;currPos:4.2
M6054 "42.png";show Image
G0 Z10.2 F120;
G0 Z4.2 F120;
G4 P4000;
M106 S255;light on
G4 P3000;
M106 S0; light off

;LAYER_END

;END_GCODE_BEGIN
M106 S0;
G1 Z250 F25;
M18;

;END_GCODE_END
